X:92
T: AM HEILIGEN ABEND VORM OSTERFEST
N: F0201
O: Europa, Mitteleuropa, Deutschland
R: Liebes - Lied, Leid, Klage
M: 3/8
L: 1/16
K: A
E2 | A3AA2 | A2A2=c2 | =c4B2 | B4
BB | B3BBB | e4d2 | =c2B2c2 | A3
AAA | B3=cBA | B2B2=c2 | d4=cd | e2e2
e2 | e2d2d2 | =c4c2 | =c4B2 | B2A2

